calendar-refresh-outline.svg

<svg fill="currentColor" viewBox="0 0 24 24"><path d="M19 3h-1V1h-2v2H8V1H6v2H5c-1.1 0-2 .9-2 2v14c0 1.1.9 2 2 2h9c-.6-.5-1.1-1.2-1.5-2H5V9h14v1.6c.7.1 1.4.3 2 .7V5c0-1.1-.9-2-2-2m0 4H5V5h14m-1 7.5c1.1 0 2.1.4 2.8 1.2l1.2-1.2v4h-4l1.8-1.8c-.5-.4-1.1-.7-1.8-.7-1.4 0-2.5 1.1-2.5 2.5S16.6 19 18 19c.8 0 1.5-.4 2-1h1.7c-.6 1.5-2 2.5-3.7 2.5-2.2 0-4-1.8-4-4s1.8-4 4-4"/></svg>

<svg  viewBox="0 0 24 24" fill="currentColor"><path  d="M19 3H18V1H16V3H8V1H6V3H5C3.9 3 3 3.9 3 5V19C3 20.1 3.9 21 5 21H14C13.4 20.5 12.9 19.8 12.5 19H5V9H19V10.6C19.7 10.7 20.4 10.9 21 11.3V5C21 3.9 20.1 3 19 3M19 7H5V5H19M18 12.5C19.1 12.5 20.1 12.9 20.8 13.7L22 12.5V16.5H18L19.8 14.7C19.3 14.3 18.7 14 18 14C16.6 14 15.5 15.1 15.5 16.5S16.6 19 18 19C18.8 19 19.5 18.6 20 18H21.7C21.1 19.5 19.7 20.5 18 20.5C15.8 20.5 14 18.7 14 16.5S15.8 12.5 18 12.5Z"/></svg>
